X:1
T:Big Scioty
M:4/4
L:1/8
K:G
|:DE|GABG AGED|EDEF G2 ((3D/E/F/|G)ABG AGED|EDEF G2 ({DEF}G2)|
GFGA Bc d2|e3 f e2 d2|BAGB AGEG|E G2 F G2:|
|:z e|gfga gedg|egab a3 e|gfga gedc|Bdef e3 (e|e)fgf edBd|B e2 f e2 (e2|e)fgf edBd|
B e2 f e2 A2|BAGB AGED|D {EF}G2 F G2:|
